public/images/navigation/owl.svg

<svg height="29" viewBox="0 0 30 29" width="30" xmlns="http://www.w3.org/2000/svg"><g fill="none" fill-rule="evenodd" transform="translate(1 1)"><path d="m14 27c7 0 14-5.2680135 14-13s-6.2680135-14-14-14-14 6.2680135-14 14 7 13 14 13z" stroke="#333" stroke-width="2"/><circle cx="7.5" cy="14.5" fill="#333" r="2.5"/><circle cx="20.5" cy="14.5" fill="#333" r="2.5"/><path d="m0 14c0-3.8659932 3.13400675-7 7-7 3.8659932 0 7 3.1340068 7 7m0 0c0-3.8659932 3.1340068-7 7-7s7 3.1340068 7 7" stroke="#333" stroke-width="2"/><g fill="#333"><rect height="8" rx=".5" width="2" x="13" y="12"/><rect height="2" rx=".5" width="4" x="12" y="19"/></g></g></svg>

<?xml version="1.0" encoding="UTF-8"?>
<svg width="30px" height="29px" viewBox="0 0 30 29" version="1.1" xmlns="http://www.w3.org/2000/svg" xmlns:xlink="http://www.w3.org/1999/xlink">
    <!-- Generator: Sketch 50 (54983) - http://www.bohemiancoding.com/sketch -->
    <title>small-owl</title>
    <desc>Created with Sketch.</desc>
    <defs></defs>
    <g id="Design" stroke="none" stroke-width="1" fill="none" fill-rule="evenodd">
        <g id="First" transform="translate(-225.000000, -44.000000)">
            <g id="small-owl" transform="translate(226.000000, 45.000000)">
                <path d="M14,27 C21,27 28,21.7319865 28,14 C28,6.2680135 21.7319865,0 14,0 C6.2680135,0 0,6.2680135 0,14 C0,21.7319865 7,27 14,27 Z" id="Oval-3" stroke="#333333" stroke-width="2"></path>
                <circle id="Oval-4" fill="#333333" cx="7.5" cy="14.5" r="2.5"></circle>
                <circle id="Oval-4" fill="#333333" cx="20.5" cy="14.5" r="2.5"></circle>
                <path d="M0,14 C0,10.1340068 3.13400675,7 7,7 C10.8659932,7 14,10.1340068 14,14 M14,14 C14,10.1340068 17.1340068,7 21,7 C24.8659932,7 28,10.1340068 28,14" id="Combined-Shape" stroke="#333333" stroke-width="2"></path>
                <rect id="Rectangle" fill="#333333" x="13" y="12" width="2" height="8" rx="0.5"></rect>
                <rect id="Rectangle-2" fill="#333333" x="12" y="19" width="4" height="2" rx="0.5"></rect>
            </g>
        </g>
    </g>
</svg>
